X: 0429
T: Sport (jig)
C: Peadar O'Riada
Z: P. Varlet (< CD "Amidst the Hills")
M: 6/8
L: 1/8
R: jig
Q: 300
K: D
AdF ~A3 | GBE GFG | AdF ~A3 | GEB cde |
AdF ~A3 | GBE ~G3 | cdc A2A | GEA D3 :|
cBc dcd | cec ~A2g | fed ged | c/d/ec A2g |
~f3 ~g3 | f/g/af d2e | fdF AFA | GEA D3 :|
AGG AEE | AGE EDD | AGG c2e | dcA AGE |
AGG AEE | AGE EDD |1 cdc A2A | GEA DE/F/G :|
[2 cdc A2G | EAA D3 |]

